X: 14214
T: Full Of Joy
R: polka
M: 2/4
K: Gmajor
d d/e/ d B/A/|d d/e/ d B/A/|d/e/d/A/ d/e/d/A/|B<A G/A/B|
d d/e/ d B/A/|d d/e/ d B/A/|d/e/d/A/ d/e/d/A/|G/A/E/D/ GD|
B B/d/ A A/d/|B B/d/ A A/d/|c/d/c/B/ A/B/A/d/|F/G/A/d/ A/B/A/G/|
F F/G/ F F/G/|A A/d/ c c/B/|A/B/d/e/ B/A/G/d/|G2 gz|
d3 e/g/|d3 e|g a/g/ e c|d2 z2|
d3/2 e/ g3/2 a/|d'a ~ag|e e/d/ c/d/e|d2 z2||
g2 ge|d>e/ ga|d/e/g/a/ d/g/e/d/|c3 B/A/|
dd dg|~d3c/B/|A/B/A/G/ F/G/A|G2 z2|
d d/e/ d B/A/|d d/e/ d B/A/|d/e/d/A/ d/e/d/A/|B<A G/A/B|
d d/e/ d B/A/|d d/e/ d B/A/|d/e/d/A/ d/e/d/A/|G/A/E/D/ G D|
B B/d/ A A/d/|B B/d/ A A/d/|c/d/c/B/ A/B/A/d/|F/G/A/d/ A/B/A/G/|
F F/G/ F F/G/|A A/d/ c c/B/|A/B/d/e/ B/A/G/d/|G2 {def}g2|

